icons/dental_hygiene.svg

<svg width="48" height="48" viewBox="0 0 48 48" fill="none" xmlns="http://www.w3.org/2000/svg">
<path d="M17.0916 14.3115C17.6439 14.3115 18.0916 14.7592 18.0916 15.3115V18.8447H21.7069C22.2592 18.8447 22.7069 19.2924 22.7069 19.8447C22.7069 20.397 22.2592 20.8447 21.7069 20.8447H18.0916V24.3782C18.0916 24.9305 17.6439 25.3782 17.0916 25.3782C16.5393 25.3782 16.0916 24.9305 16.0916 24.3782V20.8447H12.4761C11.9238 20.8447 11.4761 20.397 11.4761 19.8447C11.4761 19.2924 11.9238 18.8447 12.4761 18.8447H16.0916V15.3115C16.0916 14.7592 16.5393 14.3115 17.0916 14.3115Z" fill="black"/>
<path fill-rule="evenodd" clip-rule="evenodd" d="M10 36.5402L6.03814 9.76134C5.96575 9.29464 5.99667 8.81811 6.12862 8.36457C6.26098 7.9096 6.49158 7.48944 6.80346 7.1325C7.11529 6.77562 7.50089 6.49045 7.93309 6.29544C8.36516 6.10048 8.83424 5.99991 9.30838 6H24.6935C25.1676 6.00018 25.6365 6.10098 26.0684 6.29611C26.5003 6.49126 26.8857 6.77648 27.1973 7.13332C27.5089 7.49023 27.7393 7.91028 27.8715 8.36509C28.0033 8.81841 28.0342 9.29468 27.9619 9.76114L24 36.5402V38.5C24 39.4154 23.6513 40.3011 23.0184 40.9603C22.3843 41.6209 21.5152 42 20.6 42H13.4C12.4848 42 11.6157 41.6209 10.9816 40.9603C10.3487 40.3011 10 39.4154 10 38.5V36.5402ZM8.75566 8.11845C8.92828 8.04056 9.11679 7.99995 9.3081 8H24.6932C24.8843 8.00012 25.0725 8.04083 25.2449 8.11872C25.4174 8.19664 25.5692 8.30961 25.6907 8.44877C25.8122 8.58787 25.9006 8.74993 25.9511 8.92344C26.0015 9.09691 26.013 9.27863 25.9852 9.45651L22.2061 35H11.7939L8.01608 9.46484L8.01478 9.45651C7.98692 9.27857 7.99852 9.09677 8.049 8.92324C8.0995 8.74967 8.18798 8.58757 8.30954 8.44845C8.43115 8.30927 8.58308 8.19632 8.75566 8.11845ZM21.5757 39.5752C21.843 39.2968 22 38.9107 22 38.5V37.4667H12V38.5C12 38.9107 12.157 39.2968 12.4243 39.5752C12.6903 39.8523 13.0422 40 13.4 40H20.6C20.9578 40 21.3097 39.8523 21.5757 39.5752Z" fill="black"/>
<path d="M42 7C42 6.44772 41.5523 6 41 6C40.4477 6 40 6.44772 40 7H34V9H40V11H34V13H40V15H34V17H40V18.9919L36.2428 23.3468C36.0862 23.5283 36 23.7602 36 24V41C36 41.5523 36.4477 42 37 42C37.5523 42 38 41.5523 38 41V24.3718L41.7572 20.0169C41.9138 19.8353 42 19.6035 42 19.3636V7Z" fill="black"/>
</svg>

<svg
  xmlns="http://www.w3.org/2000/svg"
  width="24"
  height="24"
  viewBox="0 0 24 24"
  fill="none"
  stroke="currentColor"
  stroke-width="2"
  stroke-linecap="round"
  stroke-linejoin="round"
>
  <path d="M17.092 14.312a1 1 0 0 1 1 1v3.533h3.615a1 1 0 1 1 0 2h-3.615v3.533a1 1 0 1 1-2 0v-3.533h-3.616a1 1 0 1 1 0-2h3.616v-3.533a1 1 0 0 1 1-1" />
  <path
    fill-rule="evenodd"
    d="M10 36.54 6.038 9.761a3.23 3.23 0 0 1 .765-2.628 3.3 3.3 0 0 1 1.13-.838A3.3 3.3 0 0 1 9.308 6h15.386c.474 0 .943.101 1.374.296s.818.48 1.13.837a3.228 3.228 0 0 1 .765 2.628l-3.963 26.78V38.5c0 .915-.349 1.801-.982 2.46A3.35 3.35 0 0 1 20.6 42h-7.2c-.915 0-1.784-.38-2.418-1.04A3.55 3.55 0 0 1 10 38.5zM8.756 8.118c.172-.077.36-.118.552-.118h15.385c.191 0 .38.04.552.119s.324.19.446.33a1.229 1.229 0 0 1 .294 1.008L22.206 35H11.794L8.016 9.465l-.001-.008a1.23 1.23 0 0 1 .295-1.009c.121-.139.273-.252.446-.33m12.82 31.457c.267-.278.424-.664.424-1.075v-1.033H12V38.5c0 .41.157.797.424 1.075.266.277.618.425.976.425h7.2c.358 0 .71-.148.976-.425"
    clip-rule="evenodd"
  />
  <path d="M42 7a1 1 0 1 0-2 0h-6v2h6v2h-6v2h6v2h-6v2h6v1.992l-3.757 4.355A1 1 0 0 0 36 24v17a1 1 0 1 0 2 0V24.372l3.757-4.355a1 1 0 0 0 .243-.653z" />
</svg>
